svgs/sharp-regular/mp3-player.svg

<svg xmlns="http://www.w3.org/2000/svg" viewBox="0 0 384 512"><!--! Font Awesome Pro 6.6.0 by @fontawesome - https://fontawesome.com License - https://fontawesome.com/license (Commercial License) Copyright 2024 Fonticons, Inc. --><path d="M336 48l0 416L48 464 48 48l288 0zM48 0L0 0 0 48 0 464l0 48 48 0 288 0 48 0 0-48 0-416 0-48L336 0 48 0zM192 304a32 32 0 1 1 0 64 32 32 0 1 1 0-64zm0 128a96 96 0 1 0 0-192 96 96 0 1 0 0 192zM304 80L80 80l0 112 224 0 0-112z"/></svg>

<svg xmlns="http://www.w3.org/2000/svg" viewBox="0 0 384 512"><!--! Font Awesome Pro 6.4.2 by @fontawesome - https://fontawesome.com License - https://fontawesome.com/license (Commercial License) Copyright 2023 Fonticons, Inc. --><path d="M336 48V464H48V48H336zM48 0H0V48 464v48H48 336h48V464 48 0H336 48zM192 304a32 32 0 1 1 0 64 32 32 0 1 1 0-64zm0 128a96 96 0 1 0 0-192 96 96 0 1 0 0 192zM304 80H80V192H304V80z"/></svg>
